svgs/sharp-regular/person-military-pointing.svg

<svg xmlns="http://www.w3.org/2000/svg" viewBox="0 0 576 512"><!--! Font Awesome Pro 6.6.0 by @fontawesome - https://fontawesome.com License - https://fontawesome.com/license (Commercial License) Copyright 2024 Fonticons, Inc. --><path d="M224 16l0 48 192 0 0-64L224 16zm48 338.1l0-82.1 73.5 0L272 354.1zM224 272l0 192 0 48 48 0 96 0 48 0 0-48 0-139.8 64 111.7 11.9 20.8 41.7-23.9-11.9-20.8-100.8-176-4.8-8.4 0-3.6-2.1 0L400 224l-32 0-96 0-48 0s0 0 0 0L56 224l-24 0 0 48 24 0 168 0s0 0 0 0zm144 46.8l0 65.2-58.3 0L368 318.8zM272 432l96 0 0 32-96 0 0-32zM241.6 96c-1 5.2-1.6 10.5-1.6 16c0 44.2 35.8 80 80 80s80-35.8 80-80c0-5.5-.6-10.8-1.6-16l-50.7 0c2.7 4.7 4.3 10.2 4.3 16c0 17.7-14.3 32-32 32s-32-14.3-32-32c0-5.8 1.6-11.3 4.3-16l-50.7 0z"/></svg>

<svg xmlns="http://www.w3.org/2000/svg" viewBox="0 0 576 512"><!--! Font Awesome Pro 6.4.0 by @fontawesome - https://fontawesome.com License - https://fontawesome.com/license (Commercial License) Copyright 2023 Fonticons, Inc. --><path d="M224 16V64H416V0L224 16zm48 338.1V272h73.5L272 354.1zM224 272V464v48h48 96 48V464 324.2l64 111.7 11.9 20.8 41.7-23.9-11.9-20.8-100.8-176-4.8-8.4V224l-2.1 0H400l-32 0H272 224l0 0H56 32v48H56 224h0zm144 46.8V384H309.7L368 318.8zM272 432h96v32H272V432zM241.6 96c-1 5.2-1.6 10.5-1.6 16c0 44.2 35.8 80 80 80s80-35.8 80-80c0-5.5-.6-10.8-1.6-16H347.7c2.7 4.7 4.3 10.2 4.3 16c0 17.7-14.3 32-32 32s-32-14.3-32-32c0-5.8 1.6-11.3 4.3-16H241.6z"/></svg>
